X: 117
T:Ballydesmond Polka \#3
T:Ballydesmond Polka, The
T:Tom Billy's
N: page 39
N: hexatonic
M:2/4
L:1/16
R:Polka
K:Ador
Q:1/4=60
|:AB|"Am"c4 "G"B4|"Am"A2BA "G"G3A|B2d2e2d2|g6 z d|\
"C"e2a2 gage|"G"d2B2 G2AB|"Am"c2e2 "G"d2B2|[1"Am"A6:|[2"Am"A8|:
"Am"e2a2 a2ag|"G"d2g2 g4|"Am"e2a2 a2b2|"G"g6 z d|\
"C"e2a2 gage|"G"d2B2 G2AB|"Am"c2e2 "Em"d2B2|"Am"A4 A4:|
